X:225
T:Breton 2
C:Will Lynch
Z:robin.beech
R:jig
M:6/8
L:1/8
K:Ador
A3 ABd |e2A Aaf | gfg efg | f2d e3 |
A3 ABd | e2a agf | gfg efe | d2B A3 ::
g3 efg | f2d B2A | G2A B2A | G2A B2A- |
A2B A2G | A2B d2c | d2e f2g | f3 e3 |
f2e A2e | f2e a2g- | g2f e2f- | f2e d2A- |
A2B A2G | A2B d2c | d2e f2g | f3 e3 |
